X:117
T:Shakin Up the Chi 
R:reel
C: 2004, 2010 L.E. McCullough 
M:4/4
L:1/8
K:G 
GE|:DG (3Bcd ~g3d|ed (3Bcd ~g3e|e~B3 gedB|AGBG ~A3B|
DG (3Bcd ~g3a|bgag ~e3g|ed (3Bcd gedB|1 AGBA ~G3E:|2 AGBA ~G3A|]
|:B~d3 gedA|B~d3 ~g3d|eA^ce aAgA|fafe dcBA|
[1 B~G3 c~A3|d~B3 e~c3|d~f3 dfaf|gfed ~g3A:|
[2 G~B3 A~c3|B~d3 c~e3|d~f3 dfaf|gfed BAGE|]
<end>
<start>
